gfx/socialInstagram.svg

<svg fill="none" height="24" viewBox="0 0 24 24" width="24" xmlns="http://www.w3.org/2000/svg"><path d="m16.5334 1.10609c1.1326.05169 1.9176.22135 2.6557.50802 1.4685.56743 2.6294 1.72826 3.1963 3.19524.2871.73943.4569 1.52493.5086 2.65731.0502 1.10186.0628 1.59284.0654 3.43754v2.1913c-.0026 1.8449-.0152 2.3362-.0654 3.4376-.0517 1.1323-.2215 1.9178-.508 2.6556-.5674 1.4686-1.7283 2.6295-3.1952 3.1962-.7403.2876-1.5254.4574-2.6583.5091-1.102.0502-1.5928.0628-3.4376.0654h-2.1916c-1.84497-.0026-2.33595-.0152-3.43748-.0654-1.13231-.0517-1.91782-.2215-2.65573-.508-1.46854-.5675-2.6294-1.7283-3.19625-3.1953-.28726-.7397-.45693-1.5246-.50861-2.6569-.04762-1.0365-.06092-1.5211-.06421-3.1912l-.00037-2.4387c.00263-1.8453.01524-2.33625.06544-3.43731.05169-1.13259.22136-1.91757.50803-2.65571.56745-1.46851 1.72831-2.62934 3.19531-3.19618.73968-.28726 1.52467-.45692 2.65735-.50861 1.10198-.0502 1.59272-.06281 3.43752-.06544h2.1916c1.8453.00264 2.3365.01525 3.4375.06544zm-4.5334 1.85395-.2974.00002-1.0166.00094c-1.63372.00326-2.10597.01637-3.13177.0631-.92124.04203-1.50142.16744-2.05126.38096-.96372.37238-1.72552 1.13416-2.09849 2.09938-.21294.54829-.33834 1.12846-.38038 2.04963-.04673 1.02492-.05984 1.49732-.0631 3.13143l-.00094 1.0169c-.00002.096-.00003.1951-.00003.2974l.00003.3009.00091 1.027c.00201 1.0489.00792 1.6175.02389 2.152l.00747.2283c.00813.2288.01827.4631.03089.738.04204.9212.16745 1.5013.38098 2.0512.37237.9636 1.13418 1.7254 2.09942 2.0984.54806.2128 1.12877.3383 2.04968.3804 1.02535.0467 1.4978.0598 3.1317.0631l1.0167.0009h.2975.2974l1.0166-.0009c1.6337-.0033 2.106-.0164 3.1318-.0631.9214-.0421 1.5016-.1675 2.0521-.3814.9638-.3724 1.7256-1.1342 2.0985-2.0994.2128-.548.3383-1.1287.3804-2.0496.0467-1.0253.0598-1.4979.0631-3.1318v-2.6279c-.0033-1.63364-.0164-2.10611-.0631-3.13177-.0421-.92096-.1676-1.50165-.381-2.05122-.3724-.96369-1.1342-1.72547-2.0994-2.09844-.5483-.21293-1.1285-.33834-2.0497-.38037-1.0249-.04672-1.4975-.05984-3.1316-.06309l-1.0168-.00094c-.0961-.00003-.1952-.00003-.2975-.00003zm0 3.04c3.3137 0 6 2.68629 6 5.99996 0 3.3137-2.6863 6-6 6-3.31367 0-5.99997-2.6863-5.99997-6 0-3.31367 2.6863-5.99996 5.99997-5.99996zm0 2c-2.2091 0-3.99997 1.79086-3.99997 3.99996 0 2.2092 1.79087 4 3.99997 4 2.2092 0 4-1.7908 4-4 0-2.2091-1.7908-3.99996-4-3.99996zm5.9666-3.23c.6903 0 1.25.55964 1.25 1.25 0 .69035-.5597 1.25-1.25 1.25-.6904 0-1.25-.55965-1.25-1.25 0-.69036.5596-1.25 1.25-1.25z" fill="#000"/></svg>

<svg width="24" height="24" viewBox="0 0 24 24" fill="none" xmlns="http://www.w3.org/2000/svg">
<path d="M16.5334 1.10609C17.666 1.15778 18.451 1.32744 19.1891 1.61411C20.6576 2.18154 21.8185 3.34237 22.3854 4.80935C22.6725 5.54878 22.8423 6.33428 22.894 7.46666C22.9442 8.56852 22.9568 9.0595 22.9594 10.9042V13.0955C22.9568 14.9404 22.9442 15.4317 22.894 16.5331C22.8423 17.6654 22.6725 18.4509 22.386 19.1887C21.8186 20.6573 20.6577 21.8182 19.1908 22.3849C18.4505 22.6725 17.6654 22.8423 16.5325 22.894C15.4305 22.9442 14.9397 22.9568 13.0949 22.9594H10.9033C9.05833 22.9568 8.56735 22.9442 7.46582 22.894C6.33351 22.8423 5.548 22.6725 4.81009 22.386C3.34155 21.8185 2.18069 20.6577 1.61384 19.1907C1.32658 18.451 1.15691 17.6661 1.10523 16.5338C1.05761 15.4973 1.04431 15.0127 1.04102 13.3426L1.04065 10.9039C1.04328 9.0586 1.05589 8.56765 1.10609 7.46659C1.15778 6.334 1.32745 5.54902 1.61412 4.81088C2.18157 3.34237 3.34243 2.18154 4.80943 1.6147C5.54911 1.32744 6.3341 1.15778 7.46678 1.10609C8.56876 1.05589 9.0595 1.04328 10.9043 1.04065L13.0959 1.04065C14.9412 1.04329 15.4324 1.0559 16.5334 1.10609ZM12 2.96004L11.7026 2.96006L10.686 2.961C9.05228 2.96426 8.58003 2.97737 7.55423 3.0241C6.63299 3.06613 6.05281 3.19154 5.50297 3.40506C4.53925 3.77744 3.77745 4.53922 3.40448 5.50444C3.19154 6.05273 3.06614 6.6329 3.0241 7.55407C2.97737 8.57899 2.96426 9.05139 2.961 10.6855L2.96006 11.7024C2.96004 11.7984 2.96003 11.8975 2.96003 11.9998L2.96006 12.3007L2.96097 13.3277C2.96298 14.3766 2.96889 14.9452 2.98486 15.4797L2.99233 15.708C3.00046 15.9368 3.0106 16.1711 3.02322 16.446C3.06526 17.3672 3.19067 17.9473 3.4042 18.4972C3.77657 19.4608 4.53838 20.2226 5.50362 20.5956C6.05168 20.8084 6.63239 20.9339 7.5533 20.976C8.57865 21.0227 9.0511 21.0358 10.685 21.0391L11.7017 21.04C11.7978 21.04 11.8969 21.04 11.9992 21.04L12.2966 21.04L13.3132 21.0391C14.9469 21.0358 15.4192 21.0227 16.445 20.976C17.3664 20.9339 17.9466 20.8085 18.4971 20.5946C19.4609 20.2222 20.2227 19.4604 20.5956 18.4952C20.8084 17.9472 20.9339 17.3665 20.976 16.4456C21.0227 15.4203 21.0358 14.9477 21.0391 13.3138L21.0391 10.6859C21.0358 9.05226 21.0227 8.57979 20.976 7.55413C20.9339 6.63317 20.8084 6.05248 20.595 5.50291C20.2226 4.53922 19.4608 3.77744 18.4956 3.40447C17.9473 3.19154 17.3671 3.06613 16.4459 3.0241C15.421 2.97738 14.9484 2.96426 13.3143 2.96101L12.2975 2.96007C12.2014 2.96004 12.1023 2.96004 12 2.96004ZM12 6.00004C15.3137 6.00004 18 8.68633 18 12C18 15.3137 15.3137 18 12 18C8.68633 18 6.00003 15.3137 6.00003 12C6.00003 8.68633 8.68633 6.00004 12 6.00004ZM12 8.00004C9.7909 8.00004 8.00003 9.7909 8.00003 12C8.00003 14.2092 9.7909 16 12 16C14.2092 16 16 14.2092 16 12C16 9.7909 14.2092 8.00004 12 8.00004ZM17.9666 4.77004C18.6569 4.77004 19.2166 5.32968 19.2166 6.02004C19.2166 6.71039 18.6569 7.27004 17.9666 7.27004C17.2762 7.27004 16.7166 6.71039 16.7166 6.02004C16.7166 5.32968 17.2762 4.77004 17.9666 4.77004Z" fill="black" style="fill:black;fill-opacity:1;"/>
</svg>
